build/svg/cmd/lc_name.svg

<svg xmlns="http://www.w3.org/2000/svg" viewBox="0 0 24 24"><path fill="#fff" d="M5 5h14v14H5z"/><path d="M7 4C5 4 4 4 4 6v12c0 2 1 2 3 2h10c2 0 3 0 3-2V6c0-2-1-2-3-2zM5 6c0-1 1-1 2-1h2v2H5zm5-1h4v2h-4V6zm5 0h2c1 0 2 0 2 1v1h-4V6zM5 8h4v2H5zm5 0h4v2h-4zm5 0h4v2h-4zM5 11h4v2H5zm5 0h4v2h-4zm5 0h4v2h-4zM5 14h4v2H5zm5 0h4v2h-4zm5 0h4v2h-4zM5 17h4v2H7c-1 0-2 0-2-1zm5 0h4v2h-4zm5 0h4v1c0 1-1 1-2 1h-2z" fill="#6d6d6d"/><path d="M17 13v2h2v6h-2v2h6v-2h-2v-6h2v-2z" opacity=".6" stroke="#000" stroke-width="2" stroke-linejoin="round"/><path d="M17 13v2h2v6h-2v2h6v-2h-2v-6h2v-2z" fill="#aee3f8"/></svg>

<?xml version="1.0" encoding="UTF-8" standalone="no"?>
<svg
   xmlns:dc="http://purl.org/dc/elements/1.1/"
   xmlns:cc="http://creativecommons.org/ns#"
   xmlns:rdf="http://www.w3.org/1999/02/22-rdf-syntax-ns#"
   xmlns:svg="http://www.w3.org/2000/svg"
   xmlns="http://www.w3.org/2000/svg"
   xmlns:sodipodi="http://sodipodi.sourceforge.net/DTD/sodipodi-0.dtd"
   xmlns:inkscape="http://www.inkscape.org/namespaces/inkscape"
   viewBox="0 0 24 24"
   version="1.1"
   id="svg6"
   sodipodi:docname="lc_name.svg"
   inkscape:version="0.92.5 (2060ec1f9f, 2020-04-08)"
   inkscape:export-filename="/home/jupiter007/Libreoffice yaru theme fullcolor/build/cmd/lc_name.png"
   inkscape:export-xdpi="95"
   inkscape:export-ydpi="95">
  <metadata
     id="metadata12">
    <rdf:RDF>
      <cc:Work
         rdf:about="">
        <dc:format>image/svg+xml</dc:format>
        <dc:type
           rdf:resource="http://purl.org/dc/dcmitype/StillImage" />
      </cc:Work>
    </rdf:RDF>
  </metadata>
  <defs
     id="defs10" />
  <sodipodi:namedview
     pagecolor="#ffffff"
     bordercolor="#666666"
     borderopacity="1"
     objecttolerance="10"
     gridtolerance="10"
     guidetolerance="10"
     inkscape:pageopacity="0"
     inkscape:pageshadow="2"
     inkscape:window-width="1920"
     inkscape:window-height="1011"
     id="namedview8"
     showgrid="true"
     inkscape:zoom="78.666667"
     inkscape:cx="-0.43851213"
     inkscape:cy="4.9248732"
     inkscape:window-x="0"
     inkscape:window-y="32"
     inkscape:window-maximized="1"
     inkscape:current-layer="svg6">
    <inkscape:grid
       type="xygrid"
       id="grid822" />
  </sodipodi:namedview>
  <rect
     style="opacity:1;fill:#ffffff;fill-opacity:1;stroke:none;stroke-width:2;stroke-linecap:round;stroke-linejoin:round;stroke-miterlimit:4;stroke-dasharray:none;stroke-opacity:1"
     id="rect827"
     width="14"
     height="14"
     x="4.9999995"
     y="5"
     inkscape:export-filename="/home/jupiter007/Libreoffice yaru theme fullcolor/build/cmd/rect827.png"
     inkscape:export-xdpi="95"
     inkscape:export-ydpi="95" />
  <path
     d="M 7,4 C 5,4 4.0000004,4 4.0000004,6 V 18 C 4.0000004,20 5,20 7,20 h 10 c 2,0 3,0 3,-2 V 6 C 20,4 19,4 17,4 Z M 5,6 C 5,5 6,5 7,5 H 9 V 6 7 H 8 5 Z M 9.9999999,5 H 14 V 6 7 H 9.9999999 V 6 Z M 15,5 h 2 c 1,0 2,0 2,1 V 7 H 16 15 V 6 Z M 5,8 h 3 1 v 2 H 5 Z M 9.9999999,8 H 14 v 2 H 9.9999999 Z M 15,8 h 4 v 2 H 15 Z M 5,11 h 4 v 2 H 5 Z m 4.9999999,0 H 14 v 2 H 9.9999999 Z M 15,11 h 4 v 2 H 15 Z M 5,14 h 4 v 2 H 8 5 Z m 4.9999999,0 H 14 v 2 H 9.9999999 Z M 15,14 h 4 v 2 H 15 Z M 5,17 H 8 9 V 18.099609 19 H 7 C 6,19 5,19 5,18 Z m 4.9999999,0 H 14 v 2 H 9.9999999 Z M 15,17 h 4 v 1 c 0,1 -1,1 -2,1 h -2 z"
     id="path2"
     inkscape:connector-curvature="0"
     style="opacity:1;fill:#6d6d6d;fill-opacity:1"
     sodipodi:nodetypes="cccccccccccccccccccccccccccccccccccccccccccccccccccccccccccccccccccccccccccccccccccccccccccccccccc" />
  <path
     sodipodi:nodetypes="ccccccccccccc"
     style="opacity:0.6;fill:#000000;stroke:#000000;stroke-width:2;stroke-linejoin:round;stroke-miterlimit:4;stroke-dasharray:none"
     inkscape:connector-curvature="0"
     id="path822"
     d="m 17,13 v 2 h 2 v 6 h -2 v 2 h 6 v -2 h -2 v -6 h 2 v -2 z" />
  <path
     d="m 17,13 v 2 h 2 v 6 h -2 v 2 h 6 v -2 h -2 v -6 h 2 v -2 z"
     id="path4"
     inkscape:connector-curvature="0"
     style="fill:#aee3f8;fill-opacity:1"
     sodipodi:nodetypes="ccccccccccccc" />
</svg>
